lib/svg/terminal.svg

<svg xmlns="http://www.w3.org/2000/svg" width="14" height="16" viewBox="0 0 14 16"><path d="M7 10h4v1H7v-1zm-3 1l3-3-3-3-.75.75L5.5 8l-2.25 2.25L4 11zm10-8v10c0 .55-.45 1-1 1H1c-.55 0-1-.45-1-1V3c0-.55.45-1 1-1h12c.55 0 1 .45 1 1zm-1 0H1v10h12V3z"/></svg>

<?xml version="1.0" encoding="UTF-8" standalone="no"?>
<svg width="14px" height="16px" viewBox="0 0 14 16" version="1.1" xmlns="http://www.w3.org/2000/svg" xmlns:xlink="http://www.w3.org/1999/xlink">
    <!-- Generator: Sketch 3.8.3 (29802) - http://www.bohemiancoding.com/sketch -->
    <title>terminal</title>
    <desc>Created with Sketch.</desc>
    <defs></defs>
    <g id="Octicons" stroke="none" stroke-width="1" fill="none" fill-rule="evenodd">
        <g id="terminal" fill="#000000">
            <path d="M7,10 L11,10 L11,11 L7,11 L7,10 L7,10 Z M4,11 L7,8 L4,5 L3.25,5.75 L5.5,8 L3.25,10.25 L4,11 L4,11 Z M14,3 L14,13 C14,13.55 13.55,14 13,14 L1,14 C0.45,14 0,13.55 0,13 L0,3 C0,2.45 0.45,2 1,2 L13,2 C13.55,2 14,2.45 14,3 L14,3 Z M13,3 L1,3 L1,13 L13,13 L13,3 L13,3 Z" id="Shape"></path>
        </g>
    </g>
</svg>
